src/icons/bell.svg

<svg viewBox="0 0 24 24" fill="none" xmlns="http://www.w3.org/2000/svg">
<path d="M4.49765 18.1351H19.4977C20.4639 18.1351 21.0549 17.6098 21.0549 16.8218C21.0549 15.8274 20.1543 14.9737 19.31 14.167C18.644 13.5197 18.4939 12.1689 18.3719 10.9212C18.2219 7.4878 17.2181 5.06754 14.7885 4.19512C14.4038 2.95685 13.3813 2 11.993 2C10.614 2 9.59146 2.95685 9.19747 4.19512C6.7772 5.06754 5.76407 7.4878 5.62336 10.9212C5.50141 12.1689 5.34193 13.5197 4.68527 14.167C3.84099 14.9737 2.94043 15.8274 2.94043 16.8218C2.94043 17.6098 3.53142 18.1351 4.49765 18.1351ZM11.993 22C13.6628 22 14.8729 20.8086 14.9948 19.4484H9.00047C9.12242 20.8086 10.3325 22 11.993 22Z" fill="currentColor"/>
</svg>

<svg viewBox="0 0 24 24" fill="none" xmlns="http://www.w3.org/2000/svg"><path d="M4.498 18.135h15c.966 0 1.557-.525 1.557-1.313 0-.995-.9-1.848-1.745-2.655-.666-.647-.816-1.998-.938-3.246-.15-3.433-1.154-5.853-3.583-6.726C14.404 2.957 13.38 2 11.993 2c-1.379 0-2.402.957-2.796 2.195-2.42.873-3.433 3.293-3.574 6.726-.122 1.248-.281 2.599-.938 3.246-.844.807-1.745 1.66-1.745 2.655 0 .788.591 1.313 1.558 1.313zM11.993 22c1.67 0 2.88-1.191 3.002-2.552H9C9.122 20.808 10.332 22 11.993 22z" fill="currentColor"/></svg>
